svg/party_popper.svg

<svg xmlns="http://www.w3.org/2000/svg" viewBox="0 0 24 24"><path d="m14.53 1.45-1.08 1.08 1.6 1.6q.33.375.33.87c0 .495-.11.64-.33.86L11.5 9.47l1 1.08 3.63-3.61c.53-.59.79-1.24.79-1.94s-.26-1.36-.79-1.95zm-3.98 2.02L9.47 4.55l.61.56c.22.22.33.52.33.89s-.11.67-.33.89l-.61.56 1.08 1.08.56-.61c.53-.59.8-1.23.8-1.92 0-.72-.27-1.37-.8-1.97zM21 5.06c-.69 0-1.33.27-1.92.8l-5.63 5.64 1.08 1 5.58-5.56c.25-.25.55-.38.89-.38s.64.13.89.38l.61.61 1.03-1.08-.56-.61c-.59-.53-1.25-.8-1.97-.8M7 8 2 22l14-5zm12 3.06c-.7 0-1.34.27-1.94.8l-1.59 1.59 1.08 1.08 1.59-1.59c.25-.25.53-.38.86-.38s.63.13.88.38l1.62 1.59 1.05-1.03-1.6-1.64c-.59-.53-1.25-.8-1.95-.8"/></svg>

<?xml version="1.0" encoding="UTF-8"?><!DOCTYPE svg PUBLIC "-//W3C//DTD SVG 1.1//EN" "http://www.w3.org/Graphics/SVG/1.1/DTD/svg11.dtd"><svg xmlns="http://www.w3.org/2000/svg" xmlns:xlink="http://www.w3.org/1999/xlink" version="1.1" id="mdi-party-popper" width="24" height="24" viewBox="0 0 24 24"><path d="M14.53 1.45L13.45 2.53L15.05 4.13C15.27 4.38 15.38 4.67 15.38 5S15.27 5.64 15.05 5.86L11.5 9.47L12.5 10.55L16.13 6.94C16.66 6.35 16.92 5.7 16.92 5C16.92 4.3 16.66 3.64 16.13 3.05L14.53 1.45M10.55 3.47L9.47 4.55L10.08 5.11C10.3 5.33 10.41 5.63 10.41 6S10.3 6.67 10.08 6.89L9.47 7.45L10.55 8.53L11.11 7.92C11.64 7.33 11.91 6.69 11.91 6C11.91 5.28 11.64 4.63 11.11 4.03L10.55 3.47M21 5.06C20.31 5.06 19.67 5.33 19.08 5.86L13.45 11.5L14.53 12.5L20.11 6.94C20.36 6.69 20.66 6.56 21 6.56S21.64 6.69 21.89 6.94L22.5 7.55L23.53 6.47L22.97 5.86C22.38 5.33 21.72 5.06 21 5.06M7 8L2 22L16 17L7 8M19 11.06C18.3 11.06 17.66 11.33 17.06 11.86L15.47 13.45L16.55 14.53L18.14 12.94C18.39 12.69 18.67 12.56 19 12.56C19.33 12.56 19.63 12.69 19.88 12.94L21.5 14.53L22.55 13.5L20.95 11.86C20.36 11.33 19.7 11.06 19 11.06Z" /></svg>
